X:1
T:Cum Dominus gratis
T:Daniel Friderici
T:Source : Bicinia sacra---Rostock---J.Richelius---1642. Editor : André Vierendeels (13/07/17).
T:Notes : Original clefs : G2, G2 Editorial accidentals above the staff
T:Cum Dominus gratis
T:©
T:©
T:©
C:Daniel Friderici
Z:©
%%score [ 1 2 ]
L:1/8
Q:1/4=120
M:2/2
K:F
V:1 treble nm="Soprano 1" snm="S 1"
V:2 treble nm="Soprano 2" snm="S 2"
V:1
 A8- | A4 ^c4- | c4 d4 | e4 f4 | e8 | z8 | A8- | A8 | ^c6 d2 | e4 f4 | e4 A4- | A4 d4 | c6 c2 | %13
w: Cum|_ Do-|* mi-|nus gra-|tis,||cum|_|Do- mi-|nus gra-|tis, ti-|* bi|de- bi-|
 A4 d4- | d2 c2 B2 A2 | G2 A2 B2 G2 |"^-natural" A2 B2 ^c2 d2 | e4 A4 | a2 g2 f2 e2 | d2 e2 f2 g2 | %20
w: ta ma-||||* gna,|ma- * * *||
 a2 g2 f4 | e4 d4 | ^c8 | ^c8 :: z2 f2 f2 f2 | f4 e4 | f2 a2 a2 a2 | a4 g4 | a2 a3 g f2 | %29
w: |gna re-|mit-|tat:|Tu quo- que|con- ser-|vo, tu quo- que|con ser-|vo, ser- ve re-|
 e2 d2 ^c3 d | e2 A2 z2 a2- | ag f2 e2 d2 | ^c3 d e2 A2 | z2 ^c2 d2 e2 | f3 g a2 gf | %35
w: mit- te tu- *|* o, ser-|* ve re- mit- te|tu- * * o,|re- mit- te|tu- * * * *|
 e2 d3 ^c/=B/ c2 | d8 :| %37
w: |o.|
V:2
 z8 | z8 | z8 | A8- | A4 ^c4- | c4 d4 | e4 f4 | e8- | e8 | A8 | ^c6 d2 | e4 f4 | e4 e4- | %13
w: |||Cum|_ Do-|* mi-|nus gra-|tis,|_|cum|Do- mi-|nus gra-|tis ti-|
 e2 e2 f4- | f2 e2 d2 c2 | d4 d4 |"^-natural" c4 A2 B2 |"^#" c2 d2 e4 | A4 a2 g2 | f2 e2 d2 e2 | %20
w: * bi de-||* bi-|ta ma- *||gna, ma- *||
 f2 e2 d4 | ^c4 d4 |"^#" c8 |"^#" c8 :: a4 a2 a2 | a4 g4 | a2 f2 f2 f2 | f4 e4 | f6 a2- | %29
w: |gna re-|mit-|tat:|Tu quo- que|con- ver-|so, tu quo- que|con- ver-|so ser-|
 ag f2 e2 d2 | ^c3 d e2 A2 | z2 a3 g f2 | e2 d2 ^c3 d | e2 A2 z2 ^c2 | d2 e2 f2 ed | ^c2 d2 e4 | %36
w: * ve re- mit- te|tu- * * o,|ser- ve re-|mit- te tu- *|* o, re-|mit- te tu- * *||
 d8 :| %37
w: o.|

